src/assets/images/import-icon-w.svg

<?xml version="1.0" encoding="UTF-8"?>
<svg width="22px" height="24px" viewBox="0 0 22 24" version="1.1" xmlns="http://www.w3.org/2000/svg" xmlns:xlink="http://www.w3.org/1999/xlink">
    <!-- Generator: Sketch 55.2 (78181) - https://sketchapp.com -->
    <title>import(1)</title>
    <desc>Created with Sketch.</desc>
    <g id="Symbols" stroke="none" stroke-width="1" fill="none" fill-rule="evenodd">
        <g id="Icons/24px/ImportFileW" transform="translate(-1.000000, 0.000000)" fill="#FFFFFF">
            <g id="import(1)" transform="translate(1.000000, 0.000000)">
                <path d="M15.5336217,16.2857143 L16.7142857,16.2857143 C16.9509626,16.2857143 17.1428571,16.4776088 17.1428571,16.7142857 L17.1428571,24 L19.7142857,24 L19.7142857,16.7142857 C19.7142857,16.4776088 19.9061802,16.2857143 20.1428571,16.2857143 L21.3235212,16.2857143 L18.4285714,13.069336 L15.5336217,16.2857143 Z" id="Path"></path>
                <path d="M4.71428571,3.85714286 L4.71428571,0.55036275 L0.6677595,4.28571429 L4.28571429,4.28571429 C4.5223912,4.28571429 4.71428571,4.09381977 4.71428571,3.85714286 Z" id="Path"></path>
                <path d="M18.8571429,10.2857143 L18.8571429,0.428571429 C18.8571429,0.191894518 18.6652483,0 18.4285714,0 L5.57142857,0 L5.57142857,3.85714286 C5.57142857,4.56717354 4.99574496,5.14285714 4.28571429,5.14285714 L0,5.14285714 L0,21 C0,21.2366769 0.191894518,21.4285714 0.428571429,21.4285714 L16.2857143,21.4285714 L16.2857143,17.1428571 L14.5714286,17.1428571 C14.4021345,17.1428571 14.2487444,17.0432478 14.180106,16.8886021 C14.1112584,16.7339565 14.1397182,16.5533622 14.2529297,16.4275949 L18.1100726,12.1418806 C18.1933594,12.0552455 18.3084542,12.0060686 18.4285714,12.0060686 C18.5486886,12.0060686 18.6637835,12.0552455 18.7470703,12.1418806 L18.8571429,12.2640904 L18.8571429,10.2857143 Z M3,7.71428571 L4.71428571,7.71428571 C4.95096262,7.71428571 5.14285714,7.90618023 5.14285714,8.14285714 C5.14285714,8.37953405 4.95096262,8.57142857 4.71428571,8.57142857 L3,8.57142857 C2.76332309,8.57142857 2.57142857,8.37953405 2.57142857,8.14285714 C2.57142857,7.90618023 2.76332309,7.71428571 3,7.71428571 Z M15,18 C15.2366769,18 15.4285714,18.1918945 15.4285714,18.4285714 C15.4285714,18.6652483 15.2366769,18.8571429 15,18.8571429 L3,18.8571429 C2.76332309,18.8571429 2.57142857,18.6652483 2.57142857,18.4285714 C2.57142857,18.1918945 2.76332309,18 3,18 L15,18 Z M2.57142857,15.8571429 C2.57142857,15.6204659 2.76332309,15.4285714 3,15.4285714 L13.2857143,15.4285714 C13.5223912,15.4285714 13.7142857,15.6204659 13.7142857,15.8571429 C13.7142857,16.0938198 13.5223912,16.2857143 13.2857143,16.2857143 L3,16.2857143 C2.76332309,16.2857143 2.57142857,16.0938198 2.57142857,15.8571429 Z M15,13.7142857 L3,13.7142857 C2.76332309,13.7142857 2.57142857,13.5223912 2.57142857,13.2857143 C2.57142857,13.0490374 2.76332309,12.8571429 3,12.8571429 L15,12.8571429 C15.2366769,12.8571429 15.4285714,13.0490374 15.4285714,13.2857143 C15.4285714,13.5223912 15.2366769,13.7142857 15,13.7142857 Z M15.8571429,11.1428571 L3,11.1428571 C2.76332309,11.1428571 2.57142857,10.9509626 2.57142857,10.7142857 C2.57142857,10.4776088 2.76332309,10.2857143 3,10.2857143 L15.8571429,10.2857143 C16.0938198,10.2857143 16.2857143,10.4776088 16.2857143,10.7142857 C16.2857143,10.9509626 16.0938198,11.1428571 15.8571429,11.1428571 Z M15.8571429,8.57142857 L6.42857143,8.57142857 C6.19189452,8.57142857 6,8.37953405 6,8.14285714 C6,7.90618023 6.19189452,7.71428571 6.42857143,7.71428571 L15.8571429,7.71428571 C16.0938198,7.71428571 16.2857143,7.90618023 16.2857143,8.14285714 C16.2857143,8.37953405 16.0938198,8.57142857 15.8571429,8.57142857 Z" id="Shape"></path>
            </g>
        </g>
    </g>
</svg>

<?xml version="1.0" encoding="UTF-8"?>
<svg version="1.1" viewBox="0 0 22 24" xmlns="http://www.w3.org/2000/svg">
<title>import(1)</title>
<desc>Created with Sketch.</desc>
<g fill="none" fill-rule="evenodd">
<g transform="translate(-1)" fill="#fff">
<g transform="translate(1)">
<path d="m15.534 16.286h1.1807c0.23668 0 0.42857 0.19189 0.42857 0.42857v7.2857h2.5714v-7.2857c0-0.23668 0.19189-0.42857 0.42857-0.42857h1.1807l-2.8949-3.2164-2.8949 3.2164z"/>
<path d="m4.7143 3.8571v-3.3068l-4.0465 3.7354h3.618c0.23668 0 0.42857-0.19189 0.42857-0.42857z"/>
<path d="m18.857 10.286v-9.8571c0-0.23668-0.19189-0.42857-0.42857-0.42857h-12.857v3.8571c0 0.71003-0.57568 1.2857-1.2857 1.2857h-4.2857v15.857c0 0.23668 0.19189 0.42857 0.42857 0.42857h15.857v-4.2857h-1.7143c-0.16929 0-0.32268-0.099609-0.39132-0.25426-0.068848-0.15465-0.040388-0.33524 0.072824-0.46101l3.8571-4.2857c0.083287-0.086635 0.19838-0.13581 0.3185-0.13581s0.23521 0.049177 0.3185 0.13581l0.11007 0.12221v-1.9784zm-15.857-2.5714h1.7143c0.23668 0 0.42857 0.19189 0.42857 0.42857s-0.19189 0.42857-0.42857 0.42857h-1.7143c-0.23668 0-0.42857-0.19189-0.42857-0.42857s0.19189-0.42857 0.42857-0.42857zm12 10.286c0.23668 0 0.42857 0.19189 0.42857 0.42857s-0.19189 0.42857-0.42857 0.42857h-12c-0.23668 0-0.42857-0.19189-0.42857-0.42857s0.19189-0.42857 0.42857-0.42857h12zm-12.429-2.1429c0-0.23668 0.19189-0.42857 0.42857-0.42857h10.286c0.23668 0 0.42857 0.19189 0.42857 0.42857 0 0.23668-0.19189 0.42857-0.42857 0.42857h-10.286c-0.23668 0-0.42857-0.19189-0.42857-0.42857zm12.429-2.1429h-12c-0.23668 0-0.42857-0.19189-0.42857-0.42857s0.19189-0.42857 0.42857-0.42857h12c0.23668 0 0.42857 0.19189 0.42857 0.42857s-0.19189 0.42857-0.42857 0.42857zm0.85714-2.5714h-12.857c-0.23668 0-0.42857-0.19189-0.42857-0.42857s0.19189-0.42857 0.42857-0.42857h12.857c0.23668 0 0.42857 0.19189 0.42857 0.42857s-0.19189 0.42857-0.42857 0.42857zm0-2.5714h-9.4286c-0.23668 0-0.42857-0.19189-0.42857-0.42857s0.19189-0.42857 0.42857-0.42857h9.4286c0.23668 0 0.42857 0.19189 0.42857 0.42857s-0.19189 0.42857-0.42857 0.42857z"/>
</g>
</g>
</g>
</svg>
